X: 6232
T: Carna, The
R: reel
M: 4/4
K: Eminor
E2 EG FDDE|FDAF EDB,A,|B,EEE FDFA|B2 dA BAFD|
E2 EG FDDE|FBAF EDB,A,|B,E (3EEE FDFA|(3BBB BA BABd||
e2 ef edBc|dBAF DEFD|B,E (3EEE FDFA|(3BBB BA BABd|
e2 ef edBc|dBAF DEFD|B,EEE FDFA|B2 dA BAFD||

